X:86
T: Ich wollt so gern ein Wallfahrt tun (Band 1), S. 239
N: P0861
O: Lothringen
S: PINCK, Louis: Verklingende Weisen, Bd 1, Metz 1928]
R: Spottlied]
M: 2/4
L: 1/16
K: G
D2 | G2G2F2F2 | E2E2D4 |
B,2B,2C2E2 | D2C2B,4 |
G2A2B2G2 | F2D2G2G2 | z2
E2G2A2 | B2G2F2E2 | G4G4 |
G2E2D4 | GGE2D4 |
G2A2B2G2 | F2A2G2

@@@ Tune index: 7636
